X:50
T:Rigs O' Mallow
M:4/4
L:1/8
K:G
g2 f2 e2 d2 | c2 B2 A2 G2 | GABc d3 c | B2 A2 G4 ||
G2 B2 G2 B2 | G2 B2 cBAG | F2 A2 F2 A2 | F2 A2 dcBA |
G2 B2 G2 B2 | G2 B2 d3 B | cBAG FGAc | B2 G2 G4 :||
g2 fe d2 c2 | B2 c2 d4 | g2 fe d2 c2 | B2 d2 A4 |
g2 fe d2 c2 | B2 c2 d3 B | cBAG FGAc | B2 G2 G4 :||
